<?xml version="1.0" encoding="UTF-8"?>
<map version="1.10" tiledversion="1.12.0" orientation="orthogonal" renderorder="right-down" width="15" height="15" tilewidth="16" tileheight="16" infinite="0" nextlayerid="3" nextobjectid="1">
 <tileset firstgid="1" source="../../draft.tsx"/>
 <layer id="1" name="level" width="15" height="15">
  <data encoding="csv">
13,13,13,13,13,13,13,13,13,13,13,13,13,13,13,
13,14,14,14,14,14,13,13,13,13,13,13,13,13,13,
13,14,9,9,9,14,13,13,14,14,14,14,14,14,13,
13,14,9,9,9,14,14,14,14,9,9,9,9,14,13,
13,14,9,9,9,9,9,9,9,9,9,9,9,14,13,
13,14,14,14,9,9,9,9,9,9,9,9,9,14,13,
13,13,13,14,9,9,9,9,9,9,9,14,14,14,13,
13,14,14,14,9,9,9,9,9,9,9,14,13,13,13,
13,14,9,9,9,9,9,9,9,9,9,14,13,13,13,
13,14,9,9,9,9,9,9,9,9,9,14,14,14,13,
13,14,9,9,9,9,9,9,9,9,9,9,9,14,13,
13,14,9,9,9,9,14,14,14,14,9,9,9,14,13,
13,14,9,9,9,9,14,13,13,14,9,9,9,14,13,
13,14,14,14,14,14,14,13,13,14,14,14,14,14,13,
13,13,13,13,13,13,13,13,13,13,13,13,13,13,13
</data>
 </layer>
 <layer id="2" name="entities" width="15" height="15">
  <data encoding="csv">
0,0,0,0,0,0,0,0,0,0,0,0,0,0,0,
0,0,0,0,0,0,0,0,0,0,0,0,0,0,0,
0,0,0,0,0,0,0,0,0,0,0,0,0,0,0,
0,0,0,0,0,0,0,0,0,0,0,0,0,0,0,
0,0,0,0,0,0,0,0,0,0,0,0,0,0,0,
0,0,0,0,0,0,0,0,0,0,0,0,0,0,0,
0,0,0,0,0,0,0,0,0,0,0,0,0,0,0,
0,0,0,0,0,12,0,0,0,0,0,0,0,0,0,
0,0,0,0,0,0,0,0,0,0,0,0,0,0,0,
0,0,0,0,0,0,0,0,0,0,0,0,0,0,0,
0,0,0,0,0,0,0,0,0,0,0,0,0,0,0,
0,0,0,0,0,0,0,0,0,0,0,0,0,0,0,
0,0,0,0,0,0,0,0,0,0,0,0,0,0,0,
0,0,0,0,0,0,0,0,0,0,0,0,0,0,0,
0,0,0,0,0,0,0,0,0,0,0,0,0,0,0
</data>
 </layer>
</map>
