{ "compressionlevel":-1,
 "height":15,
 "infinite":false,
 "layers":[
        {
         "data":[7, 7, 7, 7, 7, 7, 7, 7, 7, 7, 7, 7, 7, 7, 7,
            7, 7, 7, 7, 7, 7, 7, 7, 7, 7, 7, 7, 7, 7, 7,
            7, 7, 7, 7, 7, 7, 8, 8, 8, 8, 8, 8, 8, 7, 7,
            7, 7, 7, 7, 8, 8, 8, 2, 2, 2, 2, 2, 8, 8, 7,
            7, 7, 8, 8, 8, 2, 2, 2, 2, 2, 2, 2, 2, 8, 7,
            7, 7, 8, 2, 2, 2, 2, 2, 2, 8, 8, 8, 8, 8, 7,
            7, 8, 8, 2, 2, 2, 2, 2, 2, 2, 2, 2, 2, 8, 7,
            7, 8, 2, 2, 2, 2, 2, 2, 2, 2, 2, 2, 2, 8, 7,
            7, 8, 8, 2, 2, 2, 2, 2, 2, 2, 2, 2, 2, 8, 7,
            7, 7, 8, 2, 2, 2, 2, 2, 2, 2, 2, 2, 8, 8, 7,
            7, 7, 8, 2, 2, 2, 2, 2, 2, 2, 2, 2, 8, 7, 7,
            7, 8, 8, 8, 8, 8, 8, 2, 2, 2, 2, 8, 8, 7, 7,
            7, 8, 2, 2, 2, 2, 2, 2, 2, 2, 8, 8, 7, 7, 7,
            7, 8, 8, 2, 2, 2, 2, 2, 2, 2, 8, 7, 7, 7, 7,
            7, 7, 8, 8, 8, 8, 8, 8, 8, 8, 8, 7, 7, 7, 7],
         "height":15,
         "id":1,
         "name":"level",
         "opacity":1,
         "type":"tilelayer",
         "visible":true,
         "width":15,
         "x":0,
         "y":0
        }, 
        {
         "data":[0, 0, 0, 0, 0, 0, 0, 0, 0, 0, 0, 0, 0, 0, 0,
            0, 0, 0, 0, 0, 0, 0, 0, 0, 0, 0, 0, 0, 0, 0,
            0, 0, 0, 0, 0, 0, 0, 0, 0, 0, 0, 0, 0, 0, 0,
            0, 0, 0, 0, 0, 0, 0, 0, 0, 0, 0, 0, 0, 0, 0,
            0, 0, 0, 0, 0, 0, 0, 0, 0, 0, 0, 0, 0, 0, 0,
            0, 0, 0, 0, 0, 0, 0, 0, 0, 0, 0, 0, 0, 0, 0,
            0, 0, 0, 0, 0, 0, 0, 0, 0, 0, 0, 0, 0, 0, 0,
            0, 0, 0, 0, 6, 0, 0, 1, 0, 0, 0, 0, 0, 0, 0,
            0, 0, 0, 0, 0, 0, 0, 0, 0, 0, 0, 0, 0, 0, 0,
            0, 0, 0, 0, 0, 0, 0, 0, 0, 0, 0, 0, 0, 0, 0,
            0, 0, 0, 0, 0, 0, 0, 0, 0, 0, 0, 0, 0, 0, 0,
            0, 0, 0, 0, 0, 0, 0, 0, 0, 0, 0, 0, 0, 0, 0,
            0, 0, 0, 0, 0, 0, 0, 0, 0, 0, 0, 0, 0, 0, 0,
            0, 0, 0, 0, 0, 0, 0, 0, 0, 0, 0, 0, 0, 0, 0,
            0, 0, 0, 0, 0, 0, 0, 0, 0, 0, 0, 0, 0, 0, 0],
         "height":15,
         "id":3,
         "name":"entities",
         "opacity":1,
         "type":"tilelayer",
         "visible":true,
         "width":15,
         "x":0,
         "y":0
        }],
 "nextlayerid":4,
 "nextobjectid":1,
 "orientation":"orthogonal",
 "renderorder":"right-down",
 "tiledversion":"1.12.0",
 "tileheight":16,
 "tilesets":[
        {
         "firstgid":1,
         "source":"..\/..\/draft.tsx"
        }],
 "tilewidth":16,
 "type":"map",
 "version":"1.10",
 "width":15
}